assets/flowers/june_left.svg

<?xml version="1.0" encoding="UTF-8" standalone="no"?>
<svg
   viewBox="0 0 273 748"
   width="273"
   height="748"
   version="1.1"
   id="svg17"
   sodipodi:docname="june_left.svg"
   inkscape:version="1.4.2 (f4327f4, 2025-05-13)"
   xmlns:inkscape="http://www.inkscape.org/namespaces/inkscape"
   xmlns:sodipodi="http://sodipodi.sourceforge.net/DTD/sodipodi-0.dtd"
   xmlns="http://www.w3.org/2000/svg"
   xmlns:svg="http://www.w3.org/2000/svg">
  <defs
     id="defs17" />
  <sodipodi:namedview
     id="namedview17"
     pagecolor="#ffffff"
     bordercolor="#000000"
     borderopacity="0.25"
     inkscape:showpageshadow="2"
     inkscape:pageopacity="0.0"
     inkscape:pagecheckerboard="0"
     inkscape:deskcolor="#d1d1d1"
     inkscape:zoom="3.1297908"
     inkscape:cx="88.344562"
     inkscape:cy="331.4918"
     inkscape:window-width="1920"
     inkscape:window-height="1009"
     inkscape:window-x="1912"
     inkscape:window-y="-8"
     inkscape:window-maximized="1"
     inkscape:current-layer="svg17" />
  <path
     d="M161.00,67.00 C158.33,68.17 150.00,73.00 145.00,74.00 C140.00,75.00 134.00,72.67 131.00,73.00 C128.00,73.33 127.33,75.83 127.00,76.00 C126.67,76.17 130.67,74.83 129.00,74.00 C127.33,73.17 120.67,70.67 117.00,71.00 C113.33,71.33 109.33,74.17 107.00,76.00 C104.67,77.83 103.17,79.00 103.00,82.00 C102.83,85.00 104.17,90.83 106.00,94.00 C107.83,97.17 110.17,99.17 114.00,101.00 C117.83,102.83 125.67,103.50 129.00,105.00 C132.33,106.50 132.50,107.17 134.00,110.00 C135.50,112.83 135.67,120.67 138.00,122.00 C140.33,123.33 145.00,120.17 148.00,118.00 C151.00,115.83 154.67,110.50 156.00,109.00"
     fill="none"
     stroke="black"
     stroke-width="6.00"
     stroke-linecap="round"
     stroke-linejoin="round"
     id="path1"
     style="stroke-width:4;stroke-dasharray:none" />
  <path
     d="m 103,336 c 0,-1.5 -1.5,-6.33 0,-9 1.5,-2.67 8,-8.17 9,-7 1,1.17 -1.33,11.17 -3,14 -1.67,2.83 -4.67,-0.17 -7,3 -2.33,3.17 -6.129639,13.56482 -8.129639,16.56482 -2,3 -0.596289,7.69446 -3.305541,2.33889 C 88.165578,351.16097 78,334.5 74,329 c -4,-5.5 -6.83,-2.17 -8,-7 -1.17,-4.83 1.83,-16.17 1,-22 -0.83,-5.83 -2.83,-8.83 -6,-13 -3.17,-4.17 -7.83,-9.17 -13,-12 -5.17,-2.83 -14.5,-5.17 -18,-5 -3.5,0.17 -4,0.67 -3,6 1,5.33 4.67,19.17 9,26 4.33,6.83 11.67,11.67 17,15 5.33,3.33 12.5,4.17 15,5"
     fill="none"
     stroke="#000000"
     stroke-width="4.00"
     stroke-linecap="round"
     stroke-linejoin="round"
     id="path2"
     style="stroke-width:4;stroke-dasharray:none"
     sodipodi:nodetypes="csssssssssssssssc" />
  <path
     d="m 197,715 c -1.17,-7.5 -3,-24.83 -7,-45 -4,-20.17 -10.83,-51.83 -17,-76 -6.17,-24.17 -15.67,-56.67 -20,-69 -4.33,-12.33 -6.56657,-23.10404 -7.03841,-20.656 C 145.57568,506.34622 145,514.33 143,532 c -2,17.67 -4.17,60.33 -8,94 -3.83,33.67 -12.5,90 -15,108"
     fill="none"
     stroke="#000000"
     stroke-width="4.00"
     stroke-linecap="round"
     stroke-linejoin="round"
     id="path3"
     style="stroke-width:4;stroke-dasharray:none"
     sodipodi:nodetypes="cssssssc" />
  <path
     d="M91.00,37.00 C90.83,36.00 89.33,33.67 90.00,31.00 C90.67,28.33 91.83,24.33 95.00,21.00 C98.17,17.67 103.67,13.00 109.00,11.00 C114.33,9.00 122.67,8.83 127.00,9.00 C131.33,9.17 133.33,10.67 135.00,12.00 C136.67,13.33 136.33,16.17 137.00,17.00 C137.67,17.83 138.67,17.00 139.00,17.00"
     fill="none"
     stroke="black"
     stroke-width="4.47"
     stroke-linecap="round"
     stroke-linejoin="round"
     id="path4"
     style="stroke-width:4;stroke-dasharray:none" />
  <path
     d="M114.00,34.00 C114.67,32.83 114.17,29.83 118.00,27.00 C121.83,24.17 132.67,18.50 137.00,17.00 C141.33,15.50 141.33,16.67 144.00,18.00 C146.67,19.33 150.83,24.00 153.00,25.00 C155.17,26.00 157.00,24.00 157.00,24.00 C157.00,24.00 153.67,23.83 153.00,25.00 C152.33,26.17 152.00,26.50 153.00,31.00 C154.00,35.50 158.00,46.00 159.00,52.00 C160.00,58.00 158.17,64.00 159.00,67.00 C159.83,70.00 163.17,68.17 164.00,70.00 C164.83,71.83 165.83,73.67 164.00,78.00 C162.17,82.33 154.67,91.00 153.00,96.00 C151.33,101.00 153.00,106.00 154.00,108.00 C155.00,110.00 156.17,110.67 159.00,108.00 C161.83,105.33 167.83,95.50 171.00,92.00 C174.17,88.50 176.83,87.83 178.00,87.00"
     fill="none"
     stroke="black"
     stroke-width="4.47"
     stroke-linecap="round"
     stroke-linejoin="round"
     id="path5"
     style="stroke-width:4;stroke-dasharray:none" />
  <path
     d="M205.00,77.00 C205.83,75.67 209.17,72.00 210.00,69.00 C210.83,66.00 211.00,63.17 210.00,59.00 C209.00,54.83 206.33,48.50 204.00,44.00 C201.67,39.50 200.67,37.17 196.00,32.00 C191.33,26.83 181.50,15.67 176.00,13.00 C170.50,10.33 166.17,14.17 163.00,16.00 C159.83,17.83 155.50,20.00 157.00,24.00 C158.50,28.00 167.67,33.67 172.00,40.00 C176.33,46.33 179.83,58.33 183.00,62.00 C186.17,65.67 187.33,59.67 191.00,62.00 C194.67,64.33 201.50,69.50 205.00,76.00 C208.50,82.50 210.83,95.17 212.00,101.00 C213.17,106.83 213.17,106.00 212.00,111.00 C210.83,116.00 207.67,126.17 205.00,131.00 C202.33,135.83 203.50,136.50 196.00,140.00 C188.50,143.50 166.67,149.33 160.00,152.00 C153.33,154.67 156.67,155.33 156.00,156.00"
     fill="none"
     stroke="black"
     stroke-width="4.47"
     stroke-linecap="round"
     stroke-linejoin="round"
     id="path6"
     style="stroke-width:4;stroke-dasharray:none" />
  <path
     d="M135.00,72.00 C137.00,69.83 145.00,62.50 147.00,59.00 C149.00,55.50 148.67,54.33 147.00,51.00 C145.33,47.67 140.17,41.50 137.00,39.00 C133.83,36.50 131.67,36.50 128.00,36.00 C124.33,35.50 117.33,36.33 115.00,36.00 C112.67,35.67 116.67,31.83 114.00,34.00 C111.33,36.17 102.17,46.83 99.00,49.00 C95.83,51.17 96.33,49.00 95.00,47.00 C93.67,45.00 93.83,37.83 91.00,37.00 C88.17,36.17 81.83,38.83 78.00,42.00 C74.17,45.17 70.17,51.50 68.00,56.00 C65.83,60.50 65.17,65.67 65.00,69.00 C64.83,72.33 67.17,74.67 67.00,76.00 C66.83,77.33 65.67,74.83 64.00,77.00 C62.33,79.17 58.33,85.17 57.00,89.00 C55.67,92.83 55.67,97.00 56.00,100.00 C56.33,103.00 57.33,104.67 59.00,107.00 C60.67,109.33 62.67,112.17 66.00,114.00 C69.33,115.83 76.83,117.33 79.00,118.00"
     fill="none"
     stroke="black"
     stroke-width="4.47"
     stroke-linecap="round"
     stroke-linejoin="round"
     id="path7"
     style="stroke-width:4;stroke-dasharray:none" />
  <path
     d="M99.00,50.00 C98.67,51.00 99.00,53.33 97.00,56.00 C95.00,58.67 89.83,61.00 87.00,66.00 C84.17,71.00 81.17,82.67 80.00,86.00"
     fill="none"
     stroke="black"
     stroke-width="4.47"
     stroke-linecap="round"
     stroke-linejoin="round"
     id="path8"
     style="stroke-width:4;stroke-dasharray:none" />
  <path
     d="M183.00,62.00 C182.67,65.00 181.83,75.83 181.00,80.00 C180.17,84.17 178.17,85.67 178.00,87.00 C177.83,88.33 179.67,86.33 180.00,88.00 C180.33,89.67 181.00,93.00 180.00,97.00 C179.00,101.00 179.00,105.00 174.00,112.00 C169.00,119.00 156.67,133.33 150.00,139.00 C143.33,144.67 137.83,143.50 134.00,146.00 C130.17,148.50 132.17,152.67 127.00,154.00 C121.83,155.33 108.00,154.50 103.00,154.00 C98.00,153.50 99.67,153.33 97.00,151.00 C94.33,148.67 90.00,145.50 87.00,140.00 C84.00,134.50 79.33,123.00 79.00,118.00 C78.67,113.00 82.83,111.33 85.00,110.00 C87.17,108.67 88.50,109.17 92.00,110.00 C95.50,110.83 100.83,112.50 106.00,115.00 C111.17,117.50 118.17,123.33 123.00,125.00 C127.83,126.67 132.33,125.50 135.00,125.00 C137.67,124.50 138.33,122.50 139.00,122.00"
     fill="none"
     stroke="black"
     stroke-width="4.47"
     stroke-linecap="round"
     stroke-linejoin="round"
     id="path9"
     style="stroke-width:4;stroke-dasharray:none" />
  <path
     d="M67.00,76.00 C69.17,77.67 76.83,80.33 80.00,86.00 C83.17,91.67 85.33,105.83 86.00,110.00 C86.67,114.17 84.33,110.83 84.00,111.00"
     fill="none"
     stroke="black"
     stroke-width="4.47"
     stroke-linecap="round"
     stroke-linejoin="round"
     id="path10"
     style="stroke-width:4;stroke-dasharray:none" />
  <path
     d="M128.00,153.00 C128.67,153.83 128.17,157.33 132.00,158.00 C135.83,158.67 148.17,155.67 151.00,157.00 C153.83,158.33 152.67,164.17 149.00,166.00 C145.33,167.83 131.83,169.33 129.00,168.00 C126.17,166.67 131.50,159.67 132.00,158.00"
     fill="none"
     stroke="black"
     stroke-width="7.21"
     stroke-linecap="round"
     stroke-linejoin="round"
     id="path11"
     style="stroke-width:4;stroke-dasharray:none" />
  <path
     d="M151.00,157.00 C152.00,156.83 154.83,154.67 157.00,156.00 C159.17,157.33 163.00,163.00 164.00,165.00 C165.00,167.00 165.33,167.50 163.00,168.00 C160.67,168.50 152.50,168.33 150.00,168.00 C147.50,167.67 147.83,166.17 148.00,166.00 C148.17,165.83 150.83,166.33 151.00,167.00 C151.17,167.67 149.00,158.17 149.00,170.00 C149.00,181.83 150.17,226.00 151.00,238.00 C151.83,250.00 151.17,242.50 154.00,242.00 C156.83,241.50 165.67,236.17 168.00,235.00"
     fill="none"
     stroke="black"
     stroke-width="4.47"
     stroke-linecap="round"
     stroke-linejoin="round"
     id="path12"
     style="stroke-width:4;stroke-dasharray:none" />
  <path
     d="M164.00,167.00 L163.00,168.00"
     fill="none"
     stroke="black"
     stroke-width="8.25"
     stroke-linecap="round"
     stroke-linejoin="round"
     id="path13"
     style="stroke-width:4;stroke-dasharray:none" />
  <path
     d="M211.00,176.00 C211.33,176.00 214.00,175.33 213.00,176.00 C212.00,176.67 207.67,177.00 205.00,180.00 C202.33,183.00 199.00,189.83 197.00,194.00 C195.00,198.17 193.50,202.17 193.00,205.00 C192.50,207.83 193.17,210.00 194.00,211.00 C194.83,212.00 195.00,213.00 198.00,211.00 C201.00,209.00 209.33,201.67 212.00,199.00 C214.67,196.33 213.83,198.83 214.00,195.00 C214.17,191.17 213.17,179.17 213.00,176.00"
     fill="none"
     stroke="black"
     stroke-width="4.47"
     stroke-linecap="round"
     stroke-linejoin="round"
     id="path14"
     style="stroke-width:4;stroke-dasharray:none" />
  <path
     d="M193.00,210.00 C191.67,212.00 187.00,220.00 185.00,222.00 C183.00,224.00 183.33,220.83 181.00,222.00 C178.67,223.17 173.00,226.83 171.00,229.00 C169.00,231.17 166.17,233.33 169.00,235.00 C171.83,236.67 182.67,238.33 188.00,239.00 C193.33,239.67 197.33,239.83 201.00,239.00 C204.67,238.17 208.17,235.33 210.00,234.00 C211.83,232.67 212.67,232.00 212.00,231.00 C211.33,230.00 209.50,228.83 206.00,228.00 C202.50,227.17 194.50,227.00 191.00,226.00 C187.50,225.00 186.00,222.67 185.00,222.00"
     fill="none"
     stroke="black"
     stroke-width="4.47"
     stroke-linecap="round"
     stroke-linejoin="round"
     id="path15"
     style="stroke-width:4;stroke-dasharray:none" />
  <path
     d="m 153,243 c -0.33,0.67 -1.83,-9.67 -2,4 -0.17,13.67 1.33,44.5 1,78 -0.33,33.5 -2.17,96.5 -3,123 -0.83,26.5 -1.17,29.33 -2,36 -0.83,6.67 -0.46683,23.84503 -0.76343,22.29196 C 145.77498,503.8749 143.33,495.33 138,481 132.67,466.67 119.33,421.33 112,402 104.67,382.67 94.119975,364.6966 90.949975,356.8666"
     fill="none"
     stroke="#000000"
     stroke-width="4.00"
     stroke-linecap="round"
     stroke-linejoin="round"
     id="path16"
     style="stroke-width:4;stroke-dasharray:none"
     sodipodi:nodetypes="csssssssc" />
</svg>

<?xml version="1.0" encoding="UTF-8"?>
<svg xmlns="http://www.w3.org/2000/svg" viewBox="0 0 273 748" width="273" height="748">
  <path d="M161.00,67.00 C158.33,68.17 150.00,73.00 145.00,74.00 C140.00,75.00 134.00,72.67 131.00,73.00 C128.00,73.33 127.33,75.83 127.00,76.00 C126.67,76.17 130.67,74.83 129.00,74.00 C127.33,73.17 120.67,70.67 117.00,71.00 C113.33,71.33 109.33,74.17 107.00,76.00 C104.67,77.83 103.17,79.00 103.00,82.00 C102.83,85.00 104.17,90.83 106.00,94.00 C107.83,97.17 110.17,99.17 114.00,101.00 C117.83,102.83 125.67,103.50 129.00,105.00 C132.33,106.50 132.50,107.17 134.00,110.00 C135.50,112.83 135.67,120.67 138.00,122.00 C140.33,123.33 145.00,120.17 148.00,118.00 C151.00,115.83 154.67,110.50 156.00,109.00" fill="none" stroke="black" stroke-width="6.00" stroke-linecap="round" stroke-linejoin="round"/>
  <path d="M103.00,336.00 C103.00,334.50 101.50,329.67 103.00,327.00 C104.50,324.33 111.00,318.83 112.00,320.00 C113.00,321.17 110.67,331.17 109.00,334.00 C107.33,336.83 104.33,333.83 102.00,337.00 C99.67,340.17 97.00,350.00 95.00,353.00 C93.00,356.00 93.50,359.00 90.00,355.00 C86.50,351.00 78.00,334.50 74.00,329.00 C70.00,323.50 67.17,326.83 66.00,322.00 C64.83,317.17 67.83,305.83 67.00,300.00 C66.17,294.17 64.17,291.17 61.00,287.00 C57.83,282.83 53.17,277.83 48.00,275.00 C42.83,272.17 33.50,269.83 30.00,270.00 C26.50,270.17 26.00,270.67 27.00,276.00 C28.00,281.33 31.67,295.17 36.00,302.00 C40.33,308.83 47.67,313.67 53.00,317.00 C58.33,320.33 65.50,321.17 68.00,322.00" fill="none" stroke="black" stroke-width="4.00" stroke-linecap="round" stroke-linejoin="round"/>
  <path d="M197.00,715.00 C195.83,707.50 194.00,690.17 190.00,670.00 C186.00,649.83 179.17,618.17 173.00,594.00 C166.83,569.83 157.33,537.33 153.00,525.00 C148.67,512.67 148.67,518.83 147.00,520.00 C145.33,521.17 145.00,514.33 143.00,532.00 C141.00,549.67 138.83,592.33 135.00,626.00 C131.17,659.67 122.50,716.00 120.00,734.00" fill="none" stroke="black" stroke-width="4.00" stroke-linecap="round" stroke-linejoin="round"/>
  <path d="M91.00,37.00 C90.83,36.00 89.33,33.67 90.00,31.00 C90.67,28.33 91.83,24.33 95.00,21.00 C98.17,17.67 103.67,13.00 109.00,11.00 C114.33,9.00 122.67,8.83 127.00,9.00 C131.33,9.17 133.33,10.67 135.00,12.00 C136.67,13.33 136.33,16.17 137.00,17.00 C137.67,17.83 138.67,17.00 139.00,17.00" fill="none" stroke="black" stroke-width="4.47" stroke-linecap="round" stroke-linejoin="round"/>
  <path d="M114.00,34.00 C114.67,32.83 114.17,29.83 118.00,27.00 C121.83,24.17 132.67,18.50 137.00,17.00 C141.33,15.50 141.33,16.67 144.00,18.00 C146.67,19.33 150.83,24.00 153.00,25.00 C155.17,26.00 157.00,24.00 157.00,24.00 C157.00,24.00 153.67,23.83 153.00,25.00 C152.33,26.17 152.00,26.50 153.00,31.00 C154.00,35.50 158.00,46.00 159.00,52.00 C160.00,58.00 158.17,64.00 159.00,67.00 C159.83,70.00 163.17,68.17 164.00,70.00 C164.83,71.83 165.83,73.67 164.00,78.00 C162.17,82.33 154.67,91.00 153.00,96.00 C151.33,101.00 153.00,106.00 154.00,108.00 C155.00,110.00 156.17,110.67 159.00,108.00 C161.83,105.33 167.83,95.50 171.00,92.00 C174.17,88.50 176.83,87.83 178.00,87.00" fill="none" stroke="black" stroke-width="4.47" stroke-linecap="round" stroke-linejoin="round"/>
  <path d="M205.00,77.00 C205.83,75.67 209.17,72.00 210.00,69.00 C210.83,66.00 211.00,63.17 210.00,59.00 C209.00,54.83 206.33,48.50 204.00,44.00 C201.67,39.50 200.67,37.17 196.00,32.00 C191.33,26.83 181.50,15.67 176.00,13.00 C170.50,10.33 166.17,14.17 163.00,16.00 C159.83,17.83 155.50,20.00 157.00,24.00 C158.50,28.00 167.67,33.67 172.00,40.00 C176.33,46.33 179.83,58.33 183.00,62.00 C186.17,65.67 187.33,59.67 191.00,62.00 C194.67,64.33 201.50,69.50 205.00,76.00 C208.50,82.50 210.83,95.17 212.00,101.00 C213.17,106.83 213.17,106.00 212.00,111.00 C210.83,116.00 207.67,126.17 205.00,131.00 C202.33,135.83 203.50,136.50 196.00,140.00 C188.50,143.50 166.67,149.33 160.00,152.00 C153.33,154.67 156.67,155.33 156.00,156.00" fill="none" stroke="black" stroke-width="4.47" stroke-linecap="round" stroke-linejoin="round"/>
  <path d="M135.00,72.00 C137.00,69.83 145.00,62.50 147.00,59.00 C149.00,55.50 148.67,54.33 147.00,51.00 C145.33,47.67 140.17,41.50 137.00,39.00 C133.83,36.50 131.67,36.50 128.00,36.00 C124.33,35.50 117.33,36.33 115.00,36.00 C112.67,35.67 116.67,31.83 114.00,34.00 C111.33,36.17 102.17,46.83 99.00,49.00 C95.83,51.17 96.33,49.00 95.00,47.00 C93.67,45.00 93.83,37.83 91.00,37.00 C88.17,36.17 81.83,38.83 78.00,42.00 C74.17,45.17 70.17,51.50 68.00,56.00 C65.83,60.50 65.17,65.67 65.00,69.00 C64.83,72.33 67.17,74.67 67.00,76.00 C66.83,77.33 65.67,74.83 64.00,77.00 C62.33,79.17 58.33,85.17 57.00,89.00 C55.67,92.83 55.67,97.00 56.00,100.00 C56.33,103.00 57.33,104.67 59.00,107.00 C60.67,109.33 62.67,112.17 66.00,114.00 C69.33,115.83 76.83,117.33 79.00,118.00" fill="none" stroke="black" stroke-width="4.47" stroke-linecap="round" stroke-linejoin="round"/>
  <path d="M99.00,50.00 C98.67,51.00 99.00,53.33 97.00,56.00 C95.00,58.67 89.83,61.00 87.00,66.00 C84.17,71.00 81.17,82.67 80.00,86.00" fill="none" stroke="black" stroke-width="4.47" stroke-linecap="round" stroke-linejoin="round"/>
  <path d="M183.00,62.00 C182.67,65.00 181.83,75.83 181.00,80.00 C180.17,84.17 178.17,85.67 178.00,87.00 C177.83,88.33 179.67,86.33 180.00,88.00 C180.33,89.67 181.00,93.00 180.00,97.00 C179.00,101.00 179.00,105.00 174.00,112.00 C169.00,119.00 156.67,133.33 150.00,139.00 C143.33,144.67 137.83,143.50 134.00,146.00 C130.17,148.50 132.17,152.67 127.00,154.00 C121.83,155.33 108.00,154.50 103.00,154.00 C98.00,153.50 99.67,153.33 97.00,151.00 C94.33,148.67 90.00,145.50 87.00,140.00 C84.00,134.50 79.33,123.00 79.00,118.00 C78.67,113.00 82.83,111.33 85.00,110.00 C87.17,108.67 88.50,109.17 92.00,110.00 C95.50,110.83 100.83,112.50 106.00,115.00 C111.17,117.50 118.17,123.33 123.00,125.00 C127.83,126.67 132.33,125.50 135.00,125.00 C137.67,124.50 138.33,122.50 139.00,122.00" fill="none" stroke="black" stroke-width="4.47" stroke-linecap="round" stroke-linejoin="round"/>
  <path d="M67.00,76.00 C69.17,77.67 76.83,80.33 80.00,86.00 C83.17,91.67 85.33,105.83 86.00,110.00 C86.67,114.17 84.33,110.83 84.00,111.00" fill="none" stroke="black" stroke-width="4.47" stroke-linecap="round" stroke-linejoin="round"/>
  <path d="M128.00,153.00 C128.67,153.83 128.17,157.33 132.00,158.00 C135.83,158.67 148.17,155.67 151.00,157.00 C153.83,158.33 152.67,164.17 149.00,166.00 C145.33,167.83 131.83,169.33 129.00,168.00 C126.17,166.67 131.50,159.67 132.00,158.00" fill="none" stroke="black" stroke-width="7.21" stroke-linecap="round" stroke-linejoin="round"/>
  <path d="M151.00,157.00 C152.00,156.83 154.83,154.67 157.00,156.00 C159.17,157.33 163.00,163.00 164.00,165.00 C165.00,167.00 165.33,167.50 163.00,168.00 C160.67,168.50 152.50,168.33 150.00,168.00 C147.50,167.67 147.83,166.17 148.00,166.00 C148.17,165.83 150.83,166.33 151.00,167.00 C151.17,167.67 149.00,158.17 149.00,170.00 C149.00,181.83 150.17,226.00 151.00,238.00 C151.83,250.00 151.17,242.50 154.00,242.00 C156.83,241.50 165.67,236.17 168.00,235.00" fill="none" stroke="black" stroke-width="4.47" stroke-linecap="round" stroke-linejoin="round"/>
  <path d="M164.00,167.00 L163.00,168.00" fill="none" stroke="black" stroke-width="8.25" stroke-linecap="round" stroke-linejoin="round"/>
  <path d="M211.00,176.00 C211.33,176.00 214.00,175.33 213.00,176.00 C212.00,176.67 207.67,177.00 205.00,180.00 C202.33,183.00 199.00,189.83 197.00,194.00 C195.00,198.17 193.50,202.17 193.00,205.00 C192.50,207.83 193.17,210.00 194.00,211.00 C194.83,212.00 195.00,213.00 198.00,211.00 C201.00,209.00 209.33,201.67 212.00,199.00 C214.67,196.33 213.83,198.83 214.00,195.00 C214.17,191.17 213.17,179.17 213.00,176.00" fill="none" stroke="black" stroke-width="4.47" stroke-linecap="round" stroke-linejoin="round"/>
  <path d="M193.00,210.00 C191.67,212.00 187.00,220.00 185.00,222.00 C183.00,224.00 183.33,220.83 181.00,222.00 C178.67,223.17 173.00,226.83 171.00,229.00 C169.00,231.17 166.17,233.33 169.00,235.00 C171.83,236.67 182.67,238.33 188.00,239.00 C193.33,239.67 197.33,239.83 201.00,239.00 C204.67,238.17 208.17,235.33 210.00,234.00 C211.83,232.67 212.67,232.00 212.00,231.00 C211.33,230.00 209.50,228.83 206.00,228.00 C202.50,227.17 194.50,227.00 191.00,226.00 C187.50,225.00 186.00,222.67 185.00,222.00" fill="none" stroke="black" stroke-width="4.47" stroke-linecap="round" stroke-linejoin="round"/>
  <path d="M153.00,243.00 C152.67,243.67 151.17,233.33 151.00,247.00 C150.83,260.67 152.33,291.50 152.00,325.00 C151.67,358.50 149.83,421.50 149.00,448.00 C148.17,474.50 147.83,477.33 147.00,484.00 C146.17,490.67 145.50,488.50 144.00,488.00 C142.50,487.50 143.33,495.33 138.00,481.00 C132.67,466.67 119.33,421.33 112.00,402.00 C104.67,382.67 97.17,372.83 94.00,365.00 C90.83,357.17 93.50,356.67 93.00,355.00 C92.50,353.33 91.33,355.00 91.00,355.00" fill="none" stroke="black" stroke-width="4.00" stroke-linecap="round" stroke-linejoin="round"/>
  <path d="M144.00,488.00 L148.00,521.00" fill="none" stroke="black" stroke-width="7.21" stroke-linecap="round" stroke-linejoin="round"/>
</svg>
